X: 15902
T: Grand Canal, The
R: reel
M: 4/4
K: Adorian
ABcA G~E3|GEAE G~E3|ABcA G~E3|1 cdec dcAG:|2 cdec d2 cd||
eaag edcA|B/c/d ef gfed|eaag edcd|edcA dcAG|
A2 ag edcA|B/c/d ef gfed|efge d2 cd|edcA dcAG||

